X:1
T:Sinfonia in D Major (3-part Invention)
T:Sinfonia in D Major (3-part Invention)
T:J.S. Bach
C:J.S. Bach
%%score { ( 1 3 ) | ( 2 4 ) }
L:1/8
Q:1/4=92
M:4/4
K:D
V:1 treble nm="Piano" snm="Pno."
V:3 treble 
V:2 bass 
V:4 bass 
V:1
"^Allegro moderato.  (.)"!p! z!<(! f/g/!<)!!>(! a=c!>)!!<(! Be/f/!<)!!>(! gB!>)! | %1
!<(! Ad/e/!<)!!>(! fA!>)! G/f/e/d/ ^c/b/a/g/ | f/!<(!e/d/e/ f/e/f/!<)!^g/ a2 e2- | e2 d4 c2- | %4
 c/e/d/c/ B^g a4- |!f! a/c/d/e/ f/g/f/e/ ^d/B/c/d/ e/f/e/=d/ | c/A/B/c/ d/e/d/c/ B2!>(! e2- | %7
 e!>)!!p!A d>e c/B/A/B/ c/B/c/^d/ | e"_cresc."B e>f =d/c/B/c/ d/c/d/e/ | %9
 f/e/!f!(d/e/ f=A ^G)(c/d/ e=G | F)(B/c/ dF E/)d/c/B/ ^A/g/f/e/ | %11
 d/c/B/c/"_dim." d/B/c/d/ ^E/^G/A/B/ c2- | c/F/^G/A/ B2- B/^E/F/G/ A2- | %13
 A/A/^G/F/ (^E2 .F)!p!(f/=g/ a=c | B2) f2- f/"_cresc."g/f/e/ ^d/c'/b/a/ | %15
 g/a/g/f/!>(! e/f/!>)!g/e/ .^c!p!(e/f/ gB | A4-) A/G/F/G/ A/G/A/B/ | %17
 =c/B/c/d/ e/d/c/B/ A/G/A/B/ c/B/c/d/ |!f! B/A/G/A/ B/=c/d- d2 c2- | =c2 B2- B"_dim."(gAf) | %20
 g/d/e/f/ g/b/a/g/!p! f/e/d/e/ f/g/f/e/ | ^d/B/^c/d/ e/f/e/=d/ c/A/B/c/ d/e/d/c/ | %22
 B/"_cresc."A/G/F/ Ec d!f!(f/g/ a=c | B)(e/f/ gB A)(d/e/!>(! fA | G/)!>)!!mf!f/e/d/ c2 d4 |] %25
V:2
 D2 z (F, G,2) z (E, | F,2) z (D, B,G,A,A,, | D,)(DCB,) A,/^G,/A,/B,/ C/D/C/B,/ | %3
 ^A,/F,/^G,/A,/ B,/C/B,/=A,/ G,/E,/F,/G,/ A,/B,/A,/=G,/ | F,D,E,E,, A,,/B,,/C,/D,/ E,/F,/=G,/E,/ | %5
 F,/E,/(F,/G,/ A,=C, B,,)(E,/F,/ G,B,, | A,,)(D,/E,/ F,A,, G,,/)F,/E,/D,/ C,/B,/A,/G,/ | %7
 F,/E,/D,/E,/ F,/E,/F,/^G,/ A,E, A,>B, | =G,/F,/E,/F,/ G,/F,/G,/A,/ B,A, G,2 | %9
 B,/^A,/B,/C/ D/E/D/C/ B,/^G,/^A,/B,/ C/D/C/B,/ | ^A,/F,/^G,/A,/ B,2- B,/B,/C/D/ E^A, | %11
 B,=A,^G,F, G,2- G,/[I:staff -1]^G/F/=E/ | %12
[I:staff +1] A,,2- A,,/A,/^G,/F,/ ^E,/C,/^D,/E,/ F,B,,/C,/ | B,2- B,/D/C/B,/ A, z z2 | %14
 A,/G,/A,/B,/ =C/F,/G,/A,/ ^D,(F,/G,/ A,D, | E,2) z E,/F,/ G,/F,/G,/A,/ B,/E,/F,/G,/ | %16
 .C,(E,/F,/ G,C, D,)(A,,/B,,/ =C,E,,) | D,,8 | .G,,(B,/=C/ D=F, E,)(A,/B,/ CE, | %19
 D,)(G,/A,/ B,D, =C,/)B,/A,/G,/ F,/E/D/=C/ | B,/A,/G,/A,/ B,/A,/B,/^C/ D2 A,2- | A,2 G,4 F,2- | %22
 F,/E,/F,/G,/ A,/G,/F,/E,/ D,/C,/D,/E,/ F,/G,/F,/E,/ | %23
 ^D,/B,,/^C,/D,/ E,/F,/E,/=D,/ C,/A,,/B,,/C,/ D,/E,/D,/C,/ | B,,G,A,A,, D,,4 |] %25
V:3
 x8 | x8 | z4 z!mf! (c/d/ e=G | F)(B/c/ dF E)(A/B/ cE | %4
 D/)c/B/A/ ^G/"_cresc."f/e/d/ c/B/A/B/ c/A/B/c/ | d2 A4 G2- | G2 F2- F/A/G/F/ E/d/c/B/ | %7
 A/G/F/G/ A/^G/A/B/ E4- | E=G/A/ B/A/B/c/ F2[I:staff +1] B,2 | x8 | x8 | x8 | %12
[I:staff -1] ^D2- D/F/E/=D/ C2- C/=E/=D/C/ | x8 | z (F/G/ A=C B,4-) | B,(E/F/ GB, A,2) E2- | %16
 E/F/E/D/ C/"_cresc."B/A/G/ F z z2 | z (A/B/ =cE) F<G- GF | G2 z/ =c/B/A/ ^G/E/F/G/ A/B/A/=G/ | %19
 F/D/E/F/ G/A/G/F/ E z z2 | z4 z (F/G/ A=C | B,)(E/F/ GB, A,)(D/E/ FA, | %22
 G,/)F/E/D/ C/B/A/G/ FA- A2- | A2 G4 F2- | F/A/G/F/ E/B/A/G/ F4 |] %25
V:4
 x8 | x8 | x8 | x8 | x8 | x8 | x8 | x8 | x8 | F,6 E,2- | E,2 z/ D,/E,/F,/ =G,2 F,2 | %11
 B,,4- B,,2 A,,2 | x8 | D,B,, C,C,, F,, z z F,/=G,/ | x8 | x8 | x8 | x8 | x8 | x8 | x8 | x8 | x8 | %23
 x8 | x8 |] %25

